build/img/icons/twitter.svg

<svg viewBox="0 0 20 18" fill="none" xmlns="http://www.w3.org/2000/svg">
<path d="M19.999 2.1368C19.25 2.50356 18.4556 2.74443 17.6423 2.85143C18.4996 2.28389 19.1412 1.39068 19.4476 0.338258C18.6431 0.868262 17.761 1.2397 16.8416 1.44062C16.2241 0.709238 15.4056 0.22418 14.5133 0.0608579C13.621 -0.102464 12.705 0.0651004 11.9076 0.537501C11.1103 1.0099 10.4762 1.76067 10.1041 2.67309C9.73199 3.58551 9.64261 4.60846 9.84988 5.58291C8.21832 5.49239 6.62219 5.02306 5.16512 4.2054C3.70805 3.38774 2.42261 2.24003 1.39227 0.836766C1.02756 1.53017 0.835906 2.31842 0.836931 3.12078C0.836931 4.69559 1.56103 6.08685 2.66189 6.9014C2.01041 6.8787 1.37327 6.68395 0.803571 6.33339V6.38986C0.803768 7.43868 1.13164 8.45516 1.7316 9.26694C2.33156 10.0787 3.16668 10.6358 4.09537 10.8439C3.4906 11.0253 2.85646 11.052 2.24097 10.922C2.50281 11.8248 3.01315 12.6144 3.70054 13.1801C4.38793 13.7459 5.21794 14.0595 6.07437 14.0771C5.2232 14.8171 4.2486 15.3641 3.20632 15.6868C2.16403 16.0096 1.0745 16.1018 0 15.9582C1.87568 17.2934 4.05916 18.0023 6.28925 18C13.8373 18 17.9651 11.0784 17.9651 5.07571C17.9651 4.88022 17.9602 4.68255 17.9523 4.48923C18.7558 3.84646 19.4492 3.05021 20 2.13788L19.999 2.1368Z" fill="white"/>
</svg>

<svg viewBox="0 0 20 18" fill="none" xmlns="http://www.w3.org/2000/svg"><path d="M19.999 2.137a7.615 7.615 0 01-2.357.714c.858-.567 1.5-1.46 1.806-2.513a7.737 7.737 0 01-2.606 1.103C16.224.709 15.406.224 14.513.06a3.761 3.761 0 00-2.605.477c-.798.472-1.432 1.223-1.804 2.135a4.99 4.99 0 00-.254 2.91 10.782 10.782 0 01-4.685-1.378A11.96 11.96 0 011.392.837 4.904 4.904 0 00.837 3.12c0 1.575.724 2.966 1.825 3.78a3.793 3.793 0 01-1.858-.568v.057c0 1.049.328 2.065.928 2.877.6.812 1.435 1.369 2.363 1.577a3.744 3.744 0 01-1.854.078 4.56 4.56 0 001.46 2.258 3.85 3.85 0 002.373.897 7.967 7.967 0 01-2.868 1.61A7.471 7.471 0 010 15.958C1.876 17.293 4.06 18.002 6.29 18c7.547 0 11.675-6.922 11.675-12.924 0-.196-.005-.393-.013-.587A8.884 8.884 0 0020 2.138l-.001-.001z" fill="#fff"/></svg>
